X: 992
T: I Will If I Can
T: Deafad Ma Tig Liom
R:double jig
C:"collected by F.O'Neill"
S:992 O'Neill's Music of Ireland
B:O'Neill's 992
Z:Transcribed by Robert Thorpe (thorpe@skep.com)
Z:ABCMUS 1.0
M:6/8
K:G
D|GBd gdB|d>ed d2 B|GBd gdB|A>BA A2 D|
|GBd gdB|def {a}gfg|edB {d}cBA|GAG G2:|
d|g2 d {f}edB|d>ed def|g2 d {f}edB|A>BA A2 d|
|g2 d {f}edB|def gfe|dcB {d}cBA|G>AG G2:|


